X:3
T:Old Flail (Paddy In London / Tailor Small's)
M:6/8
L:1/8
R:Dbl Jig
Z::dc-jig-87
K:G Major
D2E/G/ GAB| d2e/g/ gab|age (3efg e|1 d2B/G/ AGE :|2 dBG A3:|
ega a2b| ega ega|d2e/g/ ged|ged BGE|
D2E/G/ GAB| d2e/g/ gab|age (3efg e|dBG A3:|
